tools/download-figma-icons/icons/outlined-large/mail.svg

<svg width="64" height="64" viewBox="0 0 64 64" fill="none" xmlns="http://www.w3.org/2000/svg">
<path fill-rule="evenodd" clip-rule="evenodd" d="M59.5 52C60.327 52 61 51.327 61 50.5V14.5C61 13.673 60.327 13 59.5 13H4.5C3.673 13 3 13.673 3 14.5V50.5C3 51.327 3.673 52 4.5 52H59.5ZM4.5 10H59.5C61.981 10 64 12.019 64 14.5V50.5C64 52.981 61.981 55 59.5 55H4.5C2.019 55 0 52.981 0 50.5V14.5C0 12.019 2.019 10 4.5 10ZM54.6358 22.2698L42.2588 32.9638L54.6398 43.7278C55.2648 44.2708 55.3308 45.2188 54.7868 45.8438C54.4908 46.1848 54.0738 46.3598 53.6548 46.3598C53.3058 46.3598 52.9548 46.2378 52.6708 45.9908L39.9658 34.9448L32.5938 41.3158C32.5893 41.3194 32.5841 41.3218 32.5789 41.3242C32.5728 41.3271 32.5667 41.3299 32.5618 41.3348C32.4378 41.4368 32.3028 41.5158 32.1578 41.5718C32.1408 41.5785 32.1241 41.5837 32.1071 41.589C32.0962 41.5924 32.0852 41.5959 32.0738 41.5998C31.9258 41.6478 31.7728 41.6798 31.6168 41.6808H31.6138H31.6128H31.6098C31.4538 41.6798 31.3008 41.6478 31.1528 41.5998C31.1414 41.5959 31.1304 41.5924 31.1195 41.589C31.1025 41.5837 31.0858 41.5785 31.0688 41.5718C30.9238 41.5158 30.7888 41.4368 30.6648 41.3348C30.6595 41.33 30.6536 41.3272 30.6477 41.3244C30.6426 41.322 30.6375 41.3195 30.6328 41.3158L23.2608 34.9448L10.5558 45.9908C10.2718 46.2378 9.9208 46.3598 9.5718 46.3598C9.1528 46.3598 8.7368 46.1848 8.4398 45.8438C7.8958 45.2188 7.9618 44.2708 8.5868 43.7278L20.9678 32.9638L8.5908 22.2698C7.9638 21.7288 7.8948 20.7808 8.4368 20.1538C8.9788 19.5278 9.9258 19.4578 10.5518 19.9998L31.6128 38.1978L52.6748 19.9998C53.3018 19.4578 54.2488 19.5278 54.7898 20.1538C55.3318 20.7808 55.2628 21.7288 54.6358 22.2698Z" fill="black"/>
</svg>

<svg width="64" height="64" viewBox="0 0 64 64" fill="none" xmlns="http://www.w3.org/2000/svg"><path fill-rule="evenodd" clip-rule="evenodd" d="M59.5 52c.827 0 1.5-.673 1.5-1.5v-36c0-.827-.673-1.5-1.5-1.5h-55c-.827 0-1.5.673-1.5 1.5v36c0 .827.673 1.5 1.5 1.5h55Zm-55-42h55c2.481 0 4.5 2.019 4.5 4.5v36c0 2.481-2.019 4.5-4.5 4.5h-55A4.505 4.505 0 0 1 0 50.5v-36C0 12.019 2.019 10 4.5 10Zm50.136 12.27L42.259 32.964l12.38 10.764a1.5 1.5 0 1 1-1.968 2.263L39.966 34.945l-7.372 6.37a.07.07 0 0 1-.015.01.042.042 0 0 0-.017.01 1.463 1.463 0 0 1-.404.237l-.05.017-.034.01c-.148.049-.301.08-.457.082h-.007a1.515 1.515 0 0 1-.49-.092 1.463 1.463 0 0 1-.455-.254.042.042 0 0 0-.017-.01.075.075 0 0 1-.015-.01l-7.372-6.37L10.556 45.99a1.496 1.496 0 0 1-2.116-.147 1.5 1.5 0 0 1 .147-2.116l12.38-10.764L8.592 22.27A1.5 1.5 0 1 1 10.55 20l21.062 18.198L52.675 20a1.5 1.5 0 1 1 1.96 2.27Z" fill="currentColor"/></svg>
